X:1
T:Title
%%score 1 { ( 2 6 ) | ( 3 4 5 ) }
L:1/8
Q:1/4=110
M:4/4
K:C
V:1 treble nm="Akkordion"
V:2 treble nm="Grand Piano"
V:6 treble 
V:3 bass 
V:4 bass 
V:5 bass 
V:1
 C4 F2 A2 | A3 G F4 | A4 d2 f2 | e3 d c2 d2 | G4 A2 B2 | c8 | c4 c2 c2 | _e3 _B B4 | ^G4 G2 G2 | %9
w: Caryl~Florio * *|||||||||
 c3 G G4 | F4 G2 ^G2 | A2 c2 f2 F2 | A4 G4 | F8 |] %14
w: |||||
V:2
 [A,C]4 [CF]2 [EA]2 | [CEA]4 [A,CF]4 | z4 [^Gd]2 z2 | e3 d [EAc]2 [CDAd]2 | [CG]4 A2 B2 | [Ec]8 | %6
 [C_Ec]4 [CEc]2 [E^Gc]2 | [_E^G_e]4 [=G_B]4 | [F^G]4 [=G^G]2 [FG]2 | [Fc]4 [EG]4 | %10
 F4- [F-G]2 [F^G]2 | [FA]2 [EGc]2 [Ff]2 [A,B,F]2 | [FA]4 [_B,EG]4 | [A,F]8 |] %14
V:3
 z2 C,2 A,2 C2 | z2 _B,2 z4 | D,2 C,2 [B,,B,]2 [A,,A,]2 | [^G,,^G,]2 [E,,E,]2 [A,,A,]2 [F,,F,]2 | %4
 G,,4- [G,,-D,C]2 [G,,G,D]2 | [C,G,C]8 | ^G,4 G,2 G,2 | z2 z[K:treble] _B[K:bass] z2 ^C2 | %8
 F,2 F,2 _E,2 [^C,F,]2 | G,2 z G z2 _B,2 | z2 ^G,2 _B,2 =B,2 | C,2 _B,,2 A,,2 D,2 | %12
 [C,C]4 [C,,C,]4 | [F,,C,]8 |] %14
V:4
 F,,8 | z2 z G F,2 E,2 | x8 | x8 | E,4 z4 | x8 | x8 | z2 _B,2[K:treble][K:bass] z4 | x8 | %9
 z2 G,2 z4 | ^C,8 | x8 | x8 | x8 |] %14
V:5
 x8 | C,4 z4 | x8 | x8 | x8 | x8 | x8 | _E,4[K:treble][K:bass] E,4 | x8 | C,4 C,4 | x8 | x8 | x8 | %13
 x8 |] %14
V:6
 x8 | x8 | [A,FA]4 F2- [FAdf]2 | [EB]2 [E^G]2 z4 | z4 F4 | x8 | x8 | z4 _E2 z2 | C6 z2 | z4 C2 z2 | %10
 ^G,2 z2 z4 | C6 z2 | x8 | x8 |] %14

